images/maker.svg

<svg width="83" height="24" viewBox="0 0 83 24" fill="none" xmlns="http://www.w3.org/2000/svg">
<path id="Combined Shape" fill-rule="evenodd" clip-rule="evenodd" d="M21.9429 10.9714C21.9429 11.2729 21.9307 11.5716 21.9068 11.867C20.6989 9.31427 18.1019 7.54823 15.0926 7.54286C12.0387 7.54014 9.28458 9.37907 8.11657 12.2007C6.94857 15.0224 7.59721 18.2699 9.75951 20.4263C10.3833 21.0485 11.0977 21.5444 11.866 21.9069C11.571 21.9307 11.2726 21.9429 10.9714 21.9429C10.378 21.9429 9.79552 21.8957 9.22761 21.805C7.3576 20.1734 6.17483 17.7736 6.17144 15.097C6.1652 10.1756 10.1484 6.18018 15.0699 6.17144C17.7563 6.16667 20.1673 7.35072 21.805 9.22759C21.8957 9.7955 21.9429 10.378 21.9429 10.9714ZM21.805 9.22759C20.9697 3.997 16.4373 0 10.9714 0C4.91208 0 0 4.91208 0 10.9714C0 16.4373 3.99701 20.9697 9.22761 21.805C10.7959 23.1735 12.8477 24.0017 15.0925 24C17.4591 23.9982 19.7278 23.0554 21.3987 21.3795C23.0695 19.7035 24.0054 17.4319 24 15.0653C23.9949 12.8303 23.1676 10.7891 21.805 9.22759ZM11.866 21.9069C13.7608 22.8009 15.9842 22.8835 17.9895 22.047C20.808 20.8714 22.6395 18.1123 22.6285 15.0585C22.6234 13.9169 22.3651 12.8353 21.9068 11.867C21.475 17.2124 17.2116 21.4755 11.866 21.9069ZM59.9781 12.864V17.1429H57.6905L57.707 5.29371H59.9781V12.5349L62.9897 8.256H65.7545L62.5454 12.6994L65.9684 17.1429H63.0555L59.9781 12.864ZM52.4859 16.9906C51.984 17.2567 51.349 17.3897 50.581 17.3897C49.9447 17.3897 49.4057 17.2677 48.9641 17.0235C48.5225 16.7794 48.1879 16.453 47.9602 16.0443C47.7326 15.6357 47.6187 15.1845 47.6187 14.6907C47.6187 14.2793 47.6818 13.9035 47.808 13.5634C47.9342 13.2233 48.1385 12.923 48.421 12.6624C48.7035 12.4018 49.0834 12.1838 49.5607 12.0082C49.8898 11.8875 50.2821 11.7806 50.7374 11.6873C51.1927 11.5941 51.7083 11.5049 52.2843 11.4199L52.6368 11.3677L53.0032 11.3132L53.3602 11.2601L53.3447 11.1441C53.2917 10.8343 53.1769 10.5929 53.0002 10.4201C52.7479 10.1733 52.3255 10.0498 51.733 10.0498C51.4039 10.0498 51.061 10.1294 50.7045 10.2885C50.3479 10.4475 50.0983 10.7301 49.9557 11.136L47.9314 10.4942C48.1563 9.75908 48.5787 9.16114 49.1986 8.70034C49.8185 8.23954 50.6633 8.00914 51.733 8.00914C52.5175 8.00914 53.2142 8.12983 53.8231 8.3712C54.432 8.61257 54.8928 9.02948 55.2055 9.62194C55.381 9.95108 55.4853 10.2802 55.5182 10.6094C55.5511 10.9385 55.5675 11.3061 55.5675 11.712V17.1429H53.6091V16.0512L53.5949 16.0687C53.246 16.4764 52.8763 16.7837 52.4859 16.9906ZM35.2759 11.7614V17.1429H33.0213V8.256H34.9961V9.2304L35.0981 9.11086C35.3364 8.84632 35.6192 8.62446 35.9465 8.44526C36.4375 8.17646 36.9874 8.04206 37.5963 8.04206C38.293 8.04206 38.8649 8.19017 39.312 8.4864L39.4567 8.5888C39.7375 8.80091 39.9665 9.05691 40.1436 9.3568L40.1808 9.42602C40.4615 9.00613 40.8274 8.6751 41.2786 8.43291C41.7641 8.17234 42.3031 8.04206 42.8955 8.04206C43.9104 8.04206 44.677 8.3424 45.1954 8.94308C45.7138 9.54377 45.973 10.3296 45.973 11.3006V17.1429H43.7349V11.893C43.7349 11.3061 43.5963 10.8494 43.3193 10.523C43.0423 10.1966 42.6597 10.0334 42.1714 10.0334C41.8587 10.0334 41.5872 10.1061 41.3568 10.2514C41.1264 10.3968 40.9467 10.5998 40.8178 10.8603C40.6889 11.1209 40.6245 11.4213 40.6245 11.7614V17.1429H38.3863V11.893C38.3863 11.3061 38.2478 10.8494 37.9707 10.523C37.6937 10.1966 37.3111 10.0334 36.8229 10.0334C36.3566 10.0334 35.9822 10.1938 35.6996 10.5147C35.4171 10.8357 35.2759 11.2512 35.2759 11.7614ZM51.0583 15.6288C50.8004 15.6288 50.5783 15.5904 50.3918 15.5136C50.2052 15.4368 50.0612 15.3257 49.9598 15.1803C49.8583 15.035 49.8075 14.8608 49.8075 14.6578C49.8075 14.5097 49.8391 14.3753 49.9022 14.2546C49.9652 14.1339 50.064 14.0229 50.1984 13.9214C50.3328 13.8199 50.5097 13.7253 50.7291 13.6375C50.9211 13.5662 51.1433 13.5003 51.3956 13.44C51.648 13.3797 51.9799 13.3125 52.3913 13.2384C52.6484 13.1921 52.9549 13.1389 53.3106 13.0786L53.341 13.0738L53.3412 13.0806C53.3381 13.1833 53.3335 13.2945 53.3274 13.4143L53.317 13.6005C53.2978 13.9214 53.2306 14.2025 53.1154 14.4439C53.0551 14.5701 52.9412 14.7264 52.7739 14.9129C52.6066 15.0994 52.3817 15.2654 52.0992 15.4107C51.8167 15.5561 51.4697 15.6288 51.0583 15.6288ZM74.9458 13.3248C75.0391 12.2496 74.9294 11.3143 74.6167 10.5189C74.304 9.72343 73.8212 9.10629 73.1684 8.66743C72.5156 8.22857 71.723 8.00914 70.7904 8.00914C69.9127 8.00914 69.1364 8.208 68.4617 8.60571C67.787 9.00343 67.2576 9.5616 66.8736 10.2802C66.4896 10.9989 66.2976 11.8437 66.2976 12.8146C66.2976 13.7033 66.4937 14.4919 66.8859 15.1803C67.2782 15.8688 67.8213 16.4091 68.5152 16.8014C69.2091 17.1936 70.0114 17.3897 70.922 17.3897C71.7778 17.3897 72.5664 17.1648 73.2878 16.715C74.0091 16.2651 74.5371 15.6343 74.8718 14.8224L72.6336 14.1806C72.469 14.5426 72.2304 14.8197 71.9177 15.0117C71.605 15.2037 71.2292 15.2997 70.7904 15.2997C70.0937 15.2997 69.5657 15.0734 69.2064 14.6208C68.9576 14.3075 68.795 13.9041 68.7184 13.4107L68.7065 13.3248H73.8679H74.9458ZM68.7662 11.6626H72.6809L72.6684 11.5701C72.6003 11.1332 72.4776 10.7924 72.3003 10.5477C72.0123 10.1499 71.5419 9.95108 70.8891 9.95108C70.1266 9.95108 69.5657 10.1829 69.2064 10.6464L69.1267 10.7573C68.9736 10.9869 68.8588 11.2636 68.7822 11.5873L68.7662 11.6626ZM79.0519 17.1429V12.6007C79.0519 12.2606 79.0985 11.9547 79.1918 11.6832C79.285 11.4117 79.4222 11.1758 79.6032 10.9755C79.7842 10.7753 80.0064 10.6149 80.2697 10.4942C80.533 10.368 80.8279 10.2926 81.1543 10.2679C81.4807 10.2432 81.7673 10.2693 82.0142 10.3461V8.256C81.7454 8.22308 81.4766 8.21623 81.2078 8.23543C80.939 8.25463 80.6784 8.30126 80.426 8.37531C80.1737 8.44937 79.9406 8.55223 79.7266 8.68388C79.4468 8.84846 79.211 9.05691 79.019 9.30926C78.9422 9.41019 78.8715 9.51552 78.807 9.62523L78.7721 9.68777V8.256H76.7972V17.1429H79.0519Z" fill="#ADADAD"/>
</svg>

<svg xmlns="http://www.w3.org/2000/svg" width="83" height="24" fill="none"><path fill="#ADADAD" fill-rule="evenodd" d="M21.943 10.971c0 .302-.012.6-.036.896a7.55 7.55 0 0 0-6.814-4.324 7.543 7.543 0 0 0-3.227 14.364 11.124 11.124 0 0 1-2.638-.102A8.914 8.914 0 1 1 21.805 9.228c.09.568.138 1.15.138 1.743Zm-.138-1.743C20.97 3.997 16.437 0 10.971 0 4.912 0 0 4.912 0 10.971c0 5.466 3.997 9.999 9.228 10.834A8.915 8.915 0 0 0 21.805 9.228Zm-9.939 12.679a7.542 7.542 0 0 0 10.04-10.04 10.974 10.974 0 0 1-10.04 10.04Zm48.112-9.043v4.279H57.69l.017-11.85h2.271v7.242l3.012-4.279h2.764l-3.209 4.443 3.423 4.444h-2.913l-3.077-4.279Zm-7.492 4.127c-.502.266-1.137.399-1.905.399-.636 0-1.175-.122-1.617-.367a2.503 2.503 0 0 1-1.004-.979 2.734 2.734 0 0 1-.341-1.353c0-.412.063-.788.189-1.128.126-.34.33-.64.613-.9.282-.261.662-.48 1.14-.655.329-.12.721-.227 1.176-.32.456-.094.971-.183 1.547-.268l.353-.052.366-.055.357-.053-.015-.116c-.053-.31-.168-.551-.345-.724-.252-.247-.675-.37-1.267-.37-.33 0-.672.08-1.028.239-.357.159-.607.441-.75.847l-2.024-.642A3.434 3.434 0 0 1 49.2 8.7c.62-.46 1.464-.69 2.534-.69.785 0 1.481.12 2.09.361a2.61 2.61 0 0 1 1.383 1.25c.175.33.28.66.312.988.033.33.05.697.05 1.103v5.43h-1.959v-1.09l-.014.017c-.349.407-.719.715-1.11.922Zm-17.21-5.23v5.382H33.02V8.256h1.975v.974l.102-.12c.238-.264.521-.486.849-.665a3.378 3.378 0 0 1 1.65-.403c.696 0 1.268.148 1.715.444l.145.103c.28.212.51.468.687.768l.037.069c.28-.42.646-.75 1.098-.993a3.364 3.364 0 0 1 1.616-.39c1.015 0 1.782.3 2.3.9.519.6.778 1.387.778 2.358v5.842h-2.238v-5.25c0-.587-.139-1.044-.416-1.37-.277-.326-.66-.49-1.148-.49-.312 0-.584.073-.814.218-.23.146-.41.349-.54.61-.128.26-.193.56-.193.9v5.382h-2.238v-5.25c0-.587-.138-1.044-.415-1.37-.277-.326-.66-.49-1.148-.49-.466 0-.84.16-1.123.482-.283.32-.424.736-.424 1.246Zm15.782 3.868c-.258 0-.48-.039-.666-.115a.952.952 0 0 1-.432-.334.89.89 0 0 1-.153-.522c0-.148.032-.283.095-.403.063-.121.162-.232.296-.334.135-.101.312-.196.531-.284.192-.07.414-.137.667-.197.252-.06.584-.127.995-.202.257-.046.564-.1.92-.16l.03-.004v.007c-.003.102-.008.213-.014.333l-.01.187c-.02.32-.086.601-.202.843-.06.126-.174.282-.341.469a2.318 2.318 0 0 1-.675.498c-.282.145-.63.218-1.04.218Zm23.888-2.304c.093-1.075-.017-2.01-.33-2.806-.312-.796-.795-1.413-1.448-1.852-.652-.438-1.445-.658-2.378-.658-.877 0-1.654.199-2.328.597a4.193 4.193 0 0 0-1.588 1.674c-.384.719-.576 1.564-.576 2.535 0 .888.196 1.677.588 2.365a4.245 4.245 0 0 0 1.63 1.621c.693.393 1.495.589 2.406.589.856 0 1.644-.225 2.366-.675a3.938 3.938 0 0 0 1.584-1.893l-2.238-.641c-.165.362-.404.639-.716.83-.313.193-.689.289-1.128.289-.696 0-1.224-.227-1.584-.68-.248-.313-.411-.716-.488-1.21l-.011-.085h6.239Zm-6.18-1.662h3.915l-.013-.093c-.068-.437-.19-.778-.368-1.022-.288-.398-.758-.597-1.41-.597-.763 0-1.324.232-1.684.695l-.08.111c-.152.23-.267.507-.344.83l-.016.076Zm10.286 5.48V12.6c0-.34.046-.646.14-.918a2.02 2.02 0 0 1 .411-.707c.181-.2.403-.361.667-.482.263-.126.558-.201.884-.226.327-.025.613.001.86.078v-2.09a4.173 4.173 0 0 0-.806-.02c-.269.019-.53.065-.782.14a2.87 2.87 0 0 0-.7.308c-.28.164-.515.373-.707.625-.077.101-.148.207-.212.316l-.035.063V8.256h-1.975v8.887h2.255Z" clip-rule="evenodd"/></svg>
